T:Amazing Grace
C:John Newton
M:3/4
K:G
G2 B | B2 A | G2 E | D3 |
G2 B | B2 A | G2 E | G3 |
B2 d | d2 B | G2 E | D3 |
G2 B | B2 A | G2 E | G3 ||
